bicons/16x16/emblems/account-edit.svg

<?xml version="1.0" encoding="UTF-8" standalone="no"?>
<!-- Created with Inkscape (http://www.inkscape.org/) -->

<svg
   xmlns:dc="http://purl.org/dc/elements/1.1/"
   xmlns:cc="http://creativecommons.org/ns#"
   xmlns:rdf="http://www.w3.org/1999/02/22-rdf-syntax-ns#"
   xmlns:svg="http://www.w3.org/2000/svg"
   xmlns="http://www.w3.org/2000/svg"
   xmlns:xlink="http://www.w3.org/1999/xlink"
   xmlns:sodipodi="http://sodipodi.sourceforge.net/DTD/sodipodi-0.dtd"
   xmlns:inkscape="http://www.inkscape.org/namespaces/inkscape"
   width="210mm"
   height="297mm"
   viewBox="0 0 744.09448819 1052.3622047"
   id="svg2"
   version="1.1"
   inkscape:version="0.91 r13725"
   inkscape:export-xdpi="3.5999999"
   inkscape:export-ydpi="3.5999999"
   sodipodi:docname="account-edit.svg"
   inkscape:export-filename="C:\Users\johannes\Documents\Arbeit\RRZE\github3\bicons\16x16\emblems\account-edit.png">
  <defs
     id="defs4">
    <linearGradient
       inkscape:collect="always"
       id="linearGradient4153">
      <stop
         style="stop-color:#4e505d;stop-opacity:1;"
         offset="0"
         id="stop4155" />
      <stop
         style="stop-color:#7a8597;stop-opacity:1"
         offset="1"
         id="stop4157" />
    </linearGradient>
    <linearGradient
       id="linearGradient2224">
      <stop
         id="stop2226"
         offset="0"
         style="stop-color:#7c7c7c;stop-opacity:1;" />
      <stop
         id="stop2228"
         offset="1"
         style="stop-color:#b8b8b8;stop-opacity:1;" />
    </linearGradient>
    <linearGradient
       id="linearGradient15218">
      <stop
         id="stop15220"
         offset="0"
         style="stop-color:#eeeeef;stop-opacity:1;" />
      <stop
         id="stop2736"
         offset="0.59928656"
         style="stop-color:#d3d7cf;stop-opacity:1;" />
      <stop
         id="stop2738"
         offset="0.82758623"
         style="stop-color:#ffffff;stop-opacity:1;" />
      <stop
         id="stop15222"
         offset="1"
         style="stop-color:#d3d7cf;stop-opacity:1;" />
    </linearGradient>
    <pattern
       y="0"
       x="0"
       height="6"
       width="6"
       patternUnits="userSpaceOnUse"
       id="EMFhbasepattern" />
    <pattern
       y="0"
       x="0"
       height="6"
       width="6"
       patternUnits="userSpaceOnUse"
       id="EMFhbasepattern-5" />
    <linearGradient
       inkscape:collect="always"
       xlink:href="#linearGradient4153"
       id="linearGradient4159"
       x1="235"
       y1="682.36218"
       x2="525"
       y2="368.36221"
       gradientUnits="userSpaceOnUse"
       gradientTransform="matrix(0.76291706,0,0,0.76291706,65.147006,96.752929)" />
  </defs>
  <sodipodi:namedview
     id="base"
     pagecolor="#ffffff"
     bordercolor="#666666"
     borderopacity="1.0"
     inkscape:pageopacity="0.0"
     inkscape:pageshadow="2"
     inkscape:zoom="1.026524"
     inkscape:cx="492.08704"
     inkscape:cy="537.41271"
     inkscape:document-units="px"
     inkscape:current-layer="layer1"
     showgrid="false"
     showguides="true"
     inkscape:guide-bbox="true"
     inkscape:window-width="1366"
     inkscape:window-height="721"
     inkscape:window-x="-4"
     inkscape:window-y="-4"
     inkscape:window-maximized="1"
     inkscape:snap-bbox="true"
     inkscape:bbox-paths="true"
     inkscape:bbox-nodes="true">
    <sodipodi:guide
       position="560,730.00002"
       orientation="0,1"
       id="guide3338" />
    <sodipodi:guide
       position="560,330.00001"
       orientation="0,1"
       id="guide3340" />
    <sodipodi:guide
       position="190,475.00001"
       orientation="1,0"
       id="guide3344" />
    <sodipodi:guide
       position="590,451.00001"
       orientation="1,0"
       id="guide3346" />
    <inkscape:grid
       type="xygrid"
       id="grid3440" />
  </sodipodi:namedview>
  <metadata
     id="metadata7">
    <rdf:RDF>
      <cc:Work
         rdf:about="">
        <dc:format>image/svg+xml</dc:format>
        <dc:type
           rdf:resource="http://purl.org/dc/dcmitype/StillImage" />
        <dc:title>account edit</dc:title>
        <dc:date>June 2015</dc:date>
        <dc:creator>
          <cc:Agent>
            <dc:title>Johannes Hechler</dc:title>
          </cc:Agent>
        </dc:creator>
        <dc:rights>
          <cc:Agent>
            <dc:title>Johannes Hechler</dc:title>
          </cc:Agent>
        </dc:rights>
        <dc:publisher>
          <cc:Agent>
            <dc:title>RRZE</dc:title>
          </cc:Agent>
        </dc:publisher>
        <dc:contributor>
          <cc:Agent>
            <dc:title>Ute Weber, Hendrik Eggers</dc:title>
          </cc:Agent>
        </dc:contributor>
        <dc:subject>
          <rdf:Bag>
            <rdf:li>account</rdf:li>
            <rdf:li>edit</rdf:li>
            <rdf:li>at</rdf:li>
            <rdf:li>pen</rdf:li>
          </rdf:Bag>
        </dc:subject>
      </cc:Work>
    </rdf:RDF>
  </metadata>
  <g
     inkscape:label="Ebene 1"
     inkscape:groupmode="layer"
     id="layer1">
    <g
       id="g4159">
      <rect
         y="322.36221"
         x="190"
         height="400"
         width="400"
         id="rect4160"
         style="opacity:1;fill:none;fill-opacity:1;stroke:none;stroke-width:23;stroke-linecap:butt;stroke-linejoin:round;stroke-miterlimit:4;stroke-dasharray:none;stroke-opacity:1" />
      <path
         id="text4149"
         d="m 367.20312,342.5625 c -21.3917,0 -41.65126,3.84844 -60.77929,11.54492 -19.12803,7.5833 -35.99111,18.56318 -50.5918,32.9375 -14.26113,14.14795 -25.24101,30.55908 -32.9375,49.23438 -7.69648,18.67529 -11.54492,38.31269 -11.54492,58.91211 0,21.3917 3.7917,41.42431 11.375,60.09961 7.5833,18.56211 18.61992,34.91845 33.10742,49.0664 14.4875,14.14795 31.01211,24.90088 49.57422,32.25781 13.88819,5.58915 28.44139,9.08485 43.66016,10.49219 a 25.0025,25.0025 0 0 1 16.0039,-5.74609 c 0.23167,6e-4 0.45805,0.0214 0.68946,0.0234 a 25.0025,25.0025 0 0 1 6.75781,-11.89258 l 6.97851,-6.82617 c -4.91386,0.57928 -9.86014,0.875 -14.83984,0.875 -17.76983,0 -34.46269,-3.1128 -50.08203,-9.3379 -15.61934,-6.11191 -29.37158,-15.05312 -41.25586,-26.82421 -12.33701,-11.99747 -21.78887,-25.86123 -28.35352,-41.59375 -6.45146,-15.73253 -9.67578,-32.59756 -9.67578,-50.59375 0,-21.84444 4.9793,-42.104 14.93946,-60.7793 10.07334,-18.78848 23.99579,-33.95527 41.76562,-45.5 10.86563,-7.24375 22.69267,-12.67695 35.48242,-16.29883 12.78975,-3.73506 26.14482,-5.60156 40.06641,-5.60156 19.92032,0 38.31337,3.95996 55.17773,11.88281 16.97755,7.80967 31.35195,19.12803 43.12305,33.95508 7.24375,9.05469 12.62021,18.90175 16.12891,29.54101 3.62187,10.63927 5.43164,22.01436 5.43164,34.125 0,20.03351 -4.69756,36.38985 -14.0918,49.06641 -9.28106,12.56338 -22.18222,20.09004 -38.70703,22.58008 l 0,-124.95508 -24.2793,0 0,22.24024 c -6.67783,-8.60196 -14.42949,-14.99776 -23.25781,-19.18555 -8.82832,-4.30098 -19.07256,-6.45117 -30.73047,-6.45117 -19.3544,0 -35.14336,7.0747 -47.36719,21.22265 -12.22383,14.14796 -18.33593,32.54101 -18.33593,55.17774 0,22.63672 6.05536,41.02783 18.16601,55.17578 12.22383,14.03477 28.06953,21.05273 47.53711,21.05273 11.65791,0 21.84541,-2.03671 30.56055,-6.11133 8.82832,-4.18779 16.63671,-10.64033 23.42773,-19.35546 l 0,26.14648 c 7.67079,-0.16437 14.93625,-0.81867 21.80469,-1.95117 l 32.41992,-31.7168 a 25.0025,25.0025 0 0 1 14.70117,-6.97461 c 0.30277,-0.0339 0.58125,-0.0153 0.88282,-0.0469 a 25.0025,25.0025 0 0 1 6.74609,-15.29688 l 24.04687,-25.41601 c 0.61639,-5.07872 0.92383,-10.36989 0.92383,-15.87891 0,-13.92158 -2.26367,-27.39209 -6.79101,-40.4082 -4.41416,-13.01612 -10.86475,-25.07012 -19.35352,-36.16211 -13.92158,-18.10938 -31.18183,-32.08662 -51.78125,-41.9336 -20.48623,-9.84697 -42.72773,-14.77148 -66.72266,-14.77148 z m -4.58398,101.86523 c 13.8084,0 24.78828,4.69756 32.9375,14.0918 8.14922,9.28106 12.22266,21.8457 12.22266,37.69141 0,16.07207 -4.0167,28.74824 -12.05274,38.02929 -7.92285,9.28106 -18.84599,13.92188 -32.76758,13.92188 -14.03476,0 -25.06943,-4.58408 -33.10546,-13.75195 -8.03604,-9.28106 -12.05469,-22.01397 -12.05469,-38.19922 0,-15.95889 4.01865,-28.58027 12.05469,-37.86133 8.14922,-9.28106 19.0704,-13.92188 32.76562,-13.92188 z m 98.36133,168.46485 -6.32227,6.18554 c 2.4046,-1.66933 4.77757,-3.40189 7.11133,-5.21289 l -0.78906,-0.97265 z"
         style="font-style:normal;font-weight:normal;font-size:347.70007324px;line-height:125%;font-family:sans-serif;letter-spacing:0px;word-spacing:0px;fill:url(#linearGradient4159);fill-opacity:1;stroke:none;stroke-width:1px;stroke-linecap:butt;stroke-linejoin:miter;stroke-opacity:1"
         inkscape:connector-curvature="0" />
      <path
         style="fill:#97ae00;fill-opacity:1;fill-rule:evenodd;stroke:none;stroke-width:1px;stroke-linecap:butt;stroke-linejoin:miter;stroke-opacity:1"
         d="m 540,497.3622 -34.95898,36.95117 c 39.12112,1.20291 49.95336,16.62534 50,50 L 590,547.3622 c -0.42603,-26.21463 -21.81993,-49.25806 -50,-50 z m -47.45117,59.38086 c -3.25802,-0.0311 -6.75751,0.15748 -10.51563,0.57812 L 390,647.3622 c 35.85935,0.80831 50.0617,17.45448 50,50 l 92.0332,-90.04102 c 0.81592,-29.48359 -7.99014,-50.27788 -39.48437,-50.57812 z M 365,666.3622 l 0,56 56,0 c -0.5226,-38.9207 -17.63251,-55.8917 -56,-56 z"
         id="path4230"
         inkscape:connector-curvature="0" />
    </g>
  </g>
</svg>

<?xml version="1.0" encoding="UTF-8" standalone="no"?>
<!-- Created with Inkscape (http://www.inkscape.org/) -->

<svg
   xmlns:dc="http://purl.org/dc/elements/1.1/"
   xmlns:cc="http://creativecommons.org/ns#"
   xmlns:rdf="http://www.w3.org/1999/02/22-rdf-syntax-ns#"
   xmlns:svg="http://www.w3.org/2000/svg"
   xmlns="http://www.w3.org/2000/svg"
   xmlns:xlink="http://www.w3.org/1999/xlink"
   xmlns:sodipodi="http://sodipodi.sourceforge.net/DTD/sodipodi-0.dtd"
   xmlns:inkscape="http://www.inkscape.org/namespaces/inkscape"
   width="210mm"
   height="297mm"
   viewBox="0 0 744.09448819 1052.3622047"
   id="svg2"
   version="1.1"
   inkscape:version="0.91 r13725"
   inkscape:export-xdpi="3.5999999"
   inkscape:export-ydpi="3.5999999"
   sodipodi:docname="account-edit.svg"
   inkscape:export-filename="C:\Users\johannes\Documents\Arbeit\RRZE\github3\bicons\16x16\emblems\account-edit.png">
  <defs
     id="defs4">
    <linearGradient
       inkscape:collect="always"
       id="linearGradient4153">
      <stop
         style="stop-color:#4e505d;stop-opacity:1;"
         offset="0"
         id="stop4155" />
      <stop
         style="stop-color:#7a8597;stop-opacity:1"
         offset="1"
         id="stop4157" />
    </linearGradient>
    <linearGradient
       id="linearGradient2224">
      <stop
         id="stop2226"
         offset="0"
         style="stop-color:#7c7c7c;stop-opacity:1;" />
      <stop
         id="stop2228"
         offset="1"
         style="stop-color:#b8b8b8;stop-opacity:1;" />
    </linearGradient>
    <linearGradient
       id="linearGradient15218">
      <stop
         id="stop15220"
         offset="0"
         style="stop-color:#eeeeef;stop-opacity:1;" />
      <stop
         id="stop2736"
         offset="0.59928656"
         style="stop-color:#d3d7cf;stop-opacity:1;" />
      <stop
         id="stop2738"
         offset="0.82758623"
         style="stop-color:#ffffff;stop-opacity:1;" />
      <stop
         id="stop15222"
         offset="1"
         style="stop-color:#d3d7cf;stop-opacity:1;" />
    </linearGradient>
    <pattern
       y="0"
       x="0"
       height="6"
       width="6"
       patternUnits="userSpaceOnUse"
       id="EMFhbasepattern" />
    <pattern
       y="0"
       x="0"
       height="6"
       width="6"
       patternUnits="userSpaceOnUse"
       id="EMFhbasepattern-5" />
    <linearGradient
       inkscape:collect="always"
       xlink:href="#linearGradient4153"
       id="linearGradient4159"
       x1="235"
       y1="682.36218"
       x2="525"
       y2="368.36221"
       gradientUnits="userSpaceOnUse"
       gradientTransform="matrix(0.76291706,0,0,0.76291706,65.147006,96.752929)" />
  </defs>
  <sodipodi:namedview
     id="base"
     pagecolor="#ffffff"
     bordercolor="#666666"
     borderopacity="1.0"
     inkscape:pageopacity="0.0"
     inkscape:pageshadow="2"
     inkscape:zoom="0.70710678"
     inkscape:cx="342.43868"
     inkscape:cy="515.9683"
     inkscape:document-units="px"
     inkscape:current-layer="layer1"
     showgrid="false"
     showguides="true"
     inkscape:guide-bbox="true"
     inkscape:window-width="1366"
     inkscape:window-height="721"
     inkscape:window-x="-4"
     inkscape:window-y="-4"
     inkscape:window-maximized="1"
     inkscape:snap-bbox="true"
     inkscape:bbox-paths="true"
     inkscape:bbox-nodes="true">
    <sodipodi:guide
       position="560,730.00002"
       orientation="0,1"
       id="guide3338" />
    <sodipodi:guide
       position="560,330.00001"
       orientation="0,1"
       id="guide3340" />
    <sodipodi:guide
       position="190,475.00001"
       orientation="1,0"
       id="guide3344" />
    <sodipodi:guide
       position="590,451.00001"
       orientation="1,0"
       id="guide3346" />
    <inkscape:grid
       type="xygrid"
       id="grid3440" />
  </sodipodi:namedview>
  <metadata
     id="metadata7">
    <rdf:RDF>
      <cc:Work
         rdf:about="">
        <dc:format>image/svg+xml</dc:format>
        <dc:type
           rdf:resource="http://purl.org/dc/dcmitype/StillImage" />
        <dc:title>account edit</dc:title>
        <dc:date>June 2015</dc:date>
        <dc:creator>
          <cc:Agent>
            <dc:title>Johannes Hechler</dc:title>
          </cc:Agent>
        </dc:creator>
        <dc:rights>
          <cc:Agent>
            <dc:title>Johannes Hechler</dc:title>
          </cc:Agent>
        </dc:rights>
        <dc:publisher>
          <cc:Agent>
            <dc:title>RRZE</dc:title>
          </cc:Agent>
        </dc:publisher>
        <dc:contributor>
          <cc:Agent>
            <dc:title>Ute Weber, Hendrik Eggers</dc:title>
          </cc:Agent>
        </dc:contributor>
        <dc:subject>
          <rdf:Bag>
            <rdf:li>account</rdf:li>
            <rdf:li>edit</rdf:li>
            <rdf:li>at</rdf:li>
            <rdf:li>pen</rdf:li>
          </rdf:Bag>
        </dc:subject>
      </cc:Work>
    </rdf:RDF>
  </metadata>
  <g
     inkscape:label="Ebene 1"
     inkscape:groupmode="layer"
     id="layer1">
    <g
       id="g4168">
      <rect
         y="322.36221"
         x="190"
         height="400"
         width="400"
         id="rect4160"
         style="opacity:1;fill:none;fill-opacity:1;stroke:none;stroke-width:23;stroke-linecap:butt;stroke-linejoin:round;stroke-miterlimit:4;stroke-dasharray:none;stroke-opacity:1" />
      <path
         id="text4149"
         d="M 367.20312 342.5625 C 345.81142 342.5625 325.55186 346.41094 306.42383 354.10742 C 287.2958 361.69072 270.43272 372.6706 255.83203 387.04492 C 241.5709 401.19287 230.59102 417.604 222.89453 436.2793 C 215.19805 454.95459 211.34961 474.59199 211.34961 495.19141 C 211.34961 516.58311 215.14131 536.61572 222.72461 555.29102 C 230.30791 573.85313 241.34453 590.20947 255.83203 604.35742 C 270.31953 618.50537 286.84414 629.2583 305.40625 636.61523 C 319.29444 642.20438 333.84764 645.70008 349.06641 647.10742 A 25.0025 25.0025 0 0 1 365.07031 641.36133 C 365.30198 641.36193 365.52836 641.38277 365.75977 641.38477 A 25.0025 25.0025 0 0 1 372.51758 629.49219 L 379.49609 622.66602 C 374.58223 623.2453 369.63595 623.54102 364.65625 623.54102 C 346.88642 623.54102 330.19356 620.42822 314.57422 614.20312 C 298.95488 608.09121 285.20264 599.15 273.31836 587.37891 C 260.98135 575.38144 251.52949 561.51768 244.96484 545.78516 C 238.51338 530.05263 235.28906 513.1876 235.28906 495.19141 C 235.28906 473.34697 240.26836 453.08741 250.22852 434.41211 C 260.30186 415.62363 274.22431 400.45684 291.99414 388.91211 C 302.85977 381.66836 314.68681 376.23516 327.47656 372.61328 C 340.26631 368.87822 353.62138 367.01172 367.54297 367.01172 C 387.46329 367.01172 405.85634 370.97168 422.7207 378.89453 C 439.69825 386.7042 454.07265 398.02256 465.84375 412.84961 C 473.0875 421.9043 478.46396 431.75136 481.97266 442.39062 C 485.59453 453.02989 487.4043 464.40498 487.4043 476.51562 C 487.4043 496.54913 482.70674 512.90547 473.3125 525.58203 C 464.03144 538.14541 451.13028 545.67207 434.60547 548.16211 L 434.60547 423.20703 L 410.32617 423.20703 L 410.32617 445.44727 C 403.64834 436.84531 395.89668 430.44951 387.06836 426.26172 C 378.24004 421.96074 367.9958 419.81055 356.33789 419.81055 C 336.98349 419.81055 321.19453 426.88525 308.9707 441.0332 C 296.74687 455.18116 290.63477 473.57421 290.63477 496.21094 C 290.63477 518.84766 296.69013 537.23877 308.80078 551.38672 C 321.02461 565.42149 336.87031 572.43945 356.33789 572.43945 C 367.9958 572.43945 378.1833 570.40274 386.89844 566.32812 C 395.72676 562.14033 403.53515 555.68779 410.32617 546.97266 L 410.32617 573.11914 C 417.99696 572.95477 425.26242 572.30047 432.13086 571.16797 L 464.55078 539.45117 A 25.0025 25.0025 0 0 1 479.25195 532.47656 C 479.55472 532.44266 479.8332 532.46129 480.13477 532.42969 A 25.0025 25.0025 0 0 1 486.88086 517.13281 L 510.92773 491.7168 C 511.54412 486.63808 511.85156 481.34691 511.85156 475.83789 C 511.85156 461.91631 509.58789 448.4458 505.06055 435.42969 C 500.64639 422.41357 494.1958 410.35957 485.70703 399.26758 C 471.78545 381.1582 454.5252 367.18096 433.92578 357.33398 C 413.43955 347.48701 391.19805 342.5625 367.20312 342.5625 z M 362.61914 444.42773 C 376.42754 444.42773 387.40742 449.12529 395.55664 458.51953 C 403.70586 467.80059 407.7793 480.36523 407.7793 496.21094 C 407.7793 512.28301 403.7626 524.95918 395.72656 534.24023 C 387.80371 543.52129 376.88057 548.16211 362.95898 548.16211 C 348.92422 548.16211 337.88955 543.57803 329.85352 534.41016 C 321.81748 525.1291 317.79883 512.39619 317.79883 496.21094 C 317.79883 480.25205 321.81748 467.63067 329.85352 458.34961 C 338.00274 449.06855 348.92392 444.42773 362.61914 444.42773 z M 460.98047 612.89258 L 454.6582 619.07812 C 457.0628 617.40879 459.43577 615.67623 461.76953 613.86523 L 460.98047 612.89258 z "
         style="font-style:normal;font-weight:normal;font-size:347.70007324px;line-height:125%;font-family:sans-serif;letter-spacing:0px;word-spacing:0px;fill:url(#linearGradient4159);fill-opacity:1;stroke:none;stroke-width:1px;stroke-linecap:butt;stroke-linejoin:miter;stroke-opacity:1" />
      <path
         style="fill:#97ae00;fill-opacity:1;fill-rule:evenodd;stroke:none;stroke-width:1px;stroke-linecap:butt;stroke-linejoin:miter;stroke-opacity:1"
         d="m 540,497.3622 -34.95898,36.95117 c 39.12112,1.20291 49.95336,16.62534 50,50 L 590,547.3622 c -0.42603,-26.21463 -21.81993,-49.25806 -50,-50 z m -47.45117,59.38086 c -3.25802,-0.0311 -6.75751,0.15748 -10.51563,0.57812 L 390,647.3622 c 35.85935,0.80831 50.0617,17.45448 50,50 l 92.0332,-90.04102 c 0.81592,-29.48359 -7.99014,-50.27788 -39.48437,-50.57812 z M 365,666.3622 l 0,56 56,0 c -0.5226,-38.9207 -17.63251,-55.8917 -56,-56 z"
         id="path4230"
         inkscape:connector-curvature="0" />
    </g>
  </g>
</svg>
